X: 733
T: The primrose lass
C: anon.
O: Ireland
B: Francis O'Neill: "The Dance Music of Ireland" (1907) no. 733
R: Reel
Z: Transcribed by Frank Nordberg - http://www.musicaviva.com
F: http://www.musicaviva.com/abc/tunes/ireland/oneill-1001/oneill-1001-073
3.abc
M: C|
L: 1/8
K: G
B2BA G2G(E|DE)GA (BA)A2|dBAB G(AGE)|DEG(A BG)G2|B2BA G2G(E|DE)GA (BA)A2|d
(cBA) GFE(F|DE)GA BGG2:|
Bdg(d ed)g(d|Bd)gd eA-A2|Bdg(d ed)gd|B(dAc) (BG)G2|Bdg(d ed)gd|Bdgd eA-A2
|Bde(f ga)g(e|dB)Ac BGG2:|
W:
W:
W: This is one of the few tunes in O'Neill's 1001 that is
W: almost (although not quite) pentatonic.
W:
W:
W: From Musica Viva - http://www.musicaviva.com
W: the Internet center for free sheet music downloads.


